svg/Pictogram/pictograms-aem-0022-electric-general.svg

<?xml version="1.0" encoding="ISO-8859-1" standalone="yes"?>
<svg height="304.014" width="304.015">
  <metadata>
    <rdf:RDF xmlns:cc="http://web.resource.org/cc/" xmlns:dc="http://purl.org/dc/elements/1.1/" xmlns:rdf="http://www.w3.org/1999/02/22-rdf-syntax-ns#">
      <cc:Work rdf:about="">
        <dc:title></dc:title>
        <dc:description></dc:description>
        <dc:subject>
          <rdf:Bag>
            <rdf:li></rdf:li>
          </rdf:Bag>
        </dc:subject>
        <dc:publisher>
          <cc:Agent rdf:about="http://www.unece.org/trans/danger/publi/ghs/pictograms.html">
            <dc:title>Source: UNECE GHS of Classification and Labeling of Chemicals, Source: AEM Pictorial Database, Source: AEM Pictorial Database, Source: AEM Pictorial Database, Source: AEM Pictorial Database</dc:title>
          </cc:Agent>
        </dc:publisher>
        <dc:creator>
          <cc:Agent>
            <dc:title></dc:title>
          </cc:Agent>
        </dc:creator>
        <dc:rights>
          <cc:Agent>
            <dc:title></dc:title>
          </cc:Agent>
        </dc:rights>
        <dc:date></dc:date>
        <dc:format>image/svg+xml</dc:format>
        <dc:type rdf:resource="http://purl.org/dc/dcmitype/StillImage"/>
        <cc:license rdf:resource="http://en.wikipedia.org/wiki/Public_domain"/>
        <dc:language>en</dc:language>
      </cc:Work>
    </rdf:RDF>
  </metadata>
  <defs><marker id="ArrowEnd" markerHeight="3" markerUnits="strokeWidth" markerWidth="4" orient="auto" refX="0" refY="5" viewBox="0 0 10 10"><path d="M 0 0 L 10 5 L 0 10 z"/></marker><marker id="ArrowStart" markerHeight="3" markerUnits="strokeWidth" markerWidth="4" orient="auto" refX="10" refY="5" viewBox="0 0 10 10"><path d="M 10 0 L 0 5 L 10 10 z"/></marker> </defs>
  <g id="g2958" transform="matrix(1.3532768,0,0,1.3532781,-53.207834,-52.192858)">
    <path d="M 172.925 51.1044L 140.812 135.823L 192.854 106.627L 168.878 213.874L 187.327 209.405L 155.261 253.053L 140.124 201.049L 155.921 211.581L 161.187 148.385L 111.155 178.01L 138.808 50.9594L 172.921 51.1044" style="stroke:none; fill-rule:evenodd; fill:#000000"/>
    <path d="M 29.6204 265.393L 2.62042 265.393" style="stroke:#000000; stroke-width:0.5; fill:none"/>
    <path d="M 38.6204 274.393L 38.6204 301.393" style="stroke:#000000; stroke-width:0.5; fill:none"/>
    <path d="M 29.6204 38.6204L 2.62042 38.6204" style="stroke:#000000; stroke-width:0.5; fill:none"/>
    <path d="M 38.6204 29.6204L 38.6204 2.62042" style="stroke:#000000; stroke-width:0.5; fill:none"/>
    <path d="M 274.394 38.6204L 301.394 38.6204" style="stroke:#000000; stroke-width:0.5; fill:none"/>
    <path d="M 265.394 29.6204L 265.394 2.62042" style="stroke:#000000; stroke-width:0.5; fill:none"/>
    <path d="M 274.394 265.393L 301.394 265.393" style="stroke:#000000; stroke-width:0.5; fill:none"/>
    <path d="M 265.394 274.393L 265.394 301.393" style="stroke:#000000; stroke-width:0.5; fill:none"/>
  </g>
</svg>

<svg viewBox="0 0 304.01 304.01"><g transform="matrix(1.35328 0 0 1.35328-53.21-52.19)"><path d="m172.93 51.1l-32.11 84.72 52.04-29.2-23.976 107.25 18.449-4.469-32.07 43.648-15.14-52 15.797 10.532 5.266-63.2-50.03 29.625 27.653-127.05 34.11.145" fill-rule="evenodd"/></g></svg>
